assets/img/braze_icons/infinity.svg

<svg fill="none" height="24" viewBox="0 0 24 24" width="24" xmlns="http://www.w3.org/2000/svg"><path clip-rule="evenodd" d="m5.43899 7c-1.47489 0-2.62191.65911-3.37362 1.64282-.73057.95603-1.06513 2.18118-1.06513 3.35718s.33456 2.4012 1.06513 3.3572c.75171.9837 1.89873 1.6428 3.37362 1.6428 2.86937 0 4.90371-1.7936 6.56111-3.5342 1.6574 1.7406 3.6918 3.5342 6.5611 3.5342 1.4749 0 2.622-.6591 3.3737-1.6428.7305-.956 1.0651-2.1812 1.0651-3.3572s-.3346-2.40115-1.0651-3.35718c-.7517-.98371-1.8988-1.64282-3.3737-1.64282-2.8694 0-4.9037 1.7936-6.5611 3.5343-1.6573-1.7407-3.69169-3.5343-6.56111-3.5343zm0 8c-.8176 0-1.38996-.3409-1.78449-.8572-.41569-.544-.65426-1.3188-.65426-2.1428s.23857-1.5988.65426-2.14282c.39453-.51629.96689-.85718 1.78449-.85718 2.03934 0 3.54774 1.2728 5.19201 3-1.64434 1.7272-3.15271 3-5.19201 3zm13.12221 0c.8177 0 1.39-.3409 1.7845-.8572.4157-.544.6543-1.3188.6543-2.1428s-.2386-1.5988-.6543-2.14282c-.3945-.51629-.9668-.85718-1.7845-.85718-2.0393 0-3.5477 1.2728-5.192 3 1.6444 1.7272 3.1528 3 5.192 3z" fill="#801ed7" fill-rule="evenodd"/></svg>

<svg width="24" height="24" viewBox="0 0 24 24" fill="none" xmlns="http://www.w3.org/2000/svg">
<path fill-rule="evenodd" clip-rule="evenodd" d="M5.43899 7C3.9641 7 2.81708 7.65911 2.06537 8.64282C1.3348 9.59885 1.00024 10.824 1.00024 12C1.00024 13.176 1.3348 14.4012 2.06537 15.3572C2.81708 16.3409 3.9641 17 5.43899 17C8.30836 17 10.3427 15.2064 12.0001 13.4658C13.6575 15.2064 15.6919 17 18.5612 17C20.0361 17 21.1832 16.3409 21.9349 15.3572C22.6654 14.4012 23 13.176 23 12C23 10.824 22.6654 9.59885 21.9349 8.64282C21.1832 7.65911 20.0361 7 18.5612 7C15.6918 7 13.6575 8.7936 12.0001 10.5343C10.3428 8.7936 8.30841 7 5.43899 7ZM5.43899 15C4.62139 15 4.04903 14.6591 3.6545 14.1428C3.23881 13.5988 3.00024 12.824 3.00024 12C3.00024 11.176 3.23881 10.4012 3.6545 9.85718C4.04903 9.34089 4.62139 9 5.43899 9C7.47833 9 8.98673 10.2728 10.631 12C8.98666 13.7272 7.47829 15 5.43899 15ZM18.5612 15C19.3789 15 19.9512 14.6591 20.3457 14.1428C20.7614 13.5988 21 12.824 21 12C21 11.176 20.7614 10.4012 20.3457 9.85718C19.9512 9.34089 19.3789 9 18.5612 9C16.5219 9 15.0135 10.2728 13.3692 12C15.0136 13.7272 16.522 15 18.5612 15Z" fill="#801ED7"/>
</svg>
